public/img/common/icon-arrow.svg

<svg fill="none" height="24" viewBox="0 0 24 24" width="24" xmlns="http://www.w3.org/2000/svg"><path d="m10.9393 23.0607c.5858.5857 1.5356.5857 2.1214 0l9.5459-9.546c.5858-.5858.5858-1.5355 0-2.1213s-1.5355-.5858-2.1213 0l-8.4853 8.4853-8.48528-8.4853c-.58579-.5858-1.53554-.5858-2.12132 0-.585789.5858-.585789 1.5355 0 2.1213zm-.4393-23.06070007v22.00000007h3v-21.99999993z" fill="#000036"/></svg>

<svg width="24" height="24" viewBox="0 0 24 24" fill="none" xmlns="http://www.w3.org/2000/svg">
<path d="M10.9393 23.0607C11.5251 23.6464 12.4749 23.6464 13.0607 23.0607L22.6066 13.5147C23.1924 12.9289 23.1924 11.9792 22.6066 11.3934C22.0208 10.8076 21.0711 10.8076 20.4853 11.3934L12 19.8787L3.51472 11.3934C2.92893 10.8076 1.97918 10.8076 1.3934 11.3934C0.807611 11.9792 0.807611 12.9289 1.3934 13.5147L10.9393 23.0607ZM10.5 -6.55671e-08L10.5 22L13.5 22L13.5 6.55671e-08L10.5 -6.55671e-08Z" fill="#000036"/>
</svg>
